src/assets/billing/amex.svg

<svg width="34" height="17" viewBox="0 0 34 17" fill="none" xmlns="http://www.w3.org/2000/svg">
<path fill-rule="evenodd" clip-rule="evenodd" d="M0 0V17H34C34 17 34 11.4264 34 8.60897C34 5.75975 34 0 34 0H0Z" fill="url(#paint0_radial_72_915)"/>
<path fill-rule="evenodd" clip-rule="evenodd" d="M10.1503 7.74268H10.5218L10.6276 7.49933L10.6283 7.74268H16.6729V6.62649H16.8765C16.9023 6.62649 16.9251 6.62722 16.9451 6.62722C16.9458 6.65636 16.9451 6.68551 16.9451 6.70882L16.9444 6.77294L16.9516 7.74268H20.0032V7.41118C20.4126 7.68294 20.9163 7.74268 21.2142 7.74268H22.4453L22.7147 7.05708H23.447L23.7278 7.74268H26.1485L26.1478 6.94852L26.6187 7.74268H28.5342V3.50232H26.6544V4.13255L26.2814 3.50232H24.288V4.14857L24.0172 3.50232H21.2671C20.7391 3.50232 20.3247 3.61598 20.0032 3.83965V3.50232H18.1248V3.69539C17.7868 3.52345 17.4324 3.50232 17.0402 3.50232H10.3582L9.84807 4.72998L9.29362 3.50232H7.17729V4.16023L6.90078 3.50232H5.07454L3.29688 7.74268H5.32818L5.60683 7.05708H6.34276L6.61856 7.74268H9.03926V7.49788L9.14643 7.74268H10.1503ZM20.0032 4.6768C20.051 4.59593 20.1039 4.51797 20.1725 4.44511C20.4061 4.19885 20.7705 4.08519 21.2671 4.08519H21.9637V4.74383H21.2828C21.0199 4.74383 20.8691 4.78463 20.7255 4.92671C20.6048 5.05712 20.5197 5.3012 20.5197 5.62396C20.5197 5.95401 20.5819 6.19007 20.7191 6.34599C20.8277 6.4662 21.0299 6.50409 21.2199 6.50409H21.5443L22.5596 4.08519H23.6399L24.8596 6.9937V4.08519H25.9592L27.226 6.2265V4.08519H27.9633V7.16055H26.9416L25.5755 4.85458L25.5769 7.16055H24.1086L23.8278 6.47422H22.3281L22.0588 7.16055H21.2142C20.8627 7.16055 20.419 7.0804 20.1696 6.82175C19.9139 6.55801 19.7838 6.20683 19.7838 5.64582C19.7838 5.29027 19.836 4.96095 20.0032 4.6768ZM18.6964 5.85419V4.08519H19.4316V7.16055H18.6964V5.85419ZM15.3818 4.08519H17.0402C17.4067 4.08519 17.6796 4.09685 17.9126 4.23382C18.1412 4.37007 18.2777 4.57116 18.2777 4.91578C18.2777 5.12998 18.2105 5.29318 18.1248 5.42214C18.0162 5.58607 17.8747 5.69172 17.7704 5.73471C17.9276 5.79591 18.0619 5.90228 18.1248 5.99408C18.2269 6.14417 18.2462 6.28406 18.2462 6.55509V7.16055H17.5189L17.516 6.77294C17.516 6.59006 17.5346 6.32267 17.4003 6.17623C17.2952 6.06694 17.1366 6.04363 16.8766 6.04363H16.1013V7.16055H15.3818V4.08519ZM12.4736 4.08521H14.8815V4.72782H13.1953V5.28008H14.84V5.91177L13.1953 5.90958V6.52378H14.8815V7.16056H12.4736V4.08521ZM8.46791 4.74967V7.16056H7.00248L6.72669 6.47423H5.22482L4.94689 7.16056H4.16309L5.45203 4.08521H6.52449L7.74913 6.99809V4.08521H8.92804L9.86975 6.1726L10.7371 4.08521H11.9375V7.16056H11.1994L11.1951 4.75477L10.1505 7.16056H9.51822L8.46791 4.74967Z" fill="white"/>
<path fill-rule="evenodd" clip-rule="evenodd" d="M5.3999 5.73816H6.3941L5.89556 4.5817L5.3999 5.73816Z" fill="white"/>
<path fill-rule="evenodd" clip-rule="evenodd" d="M17.4076 5.21647C17.5027 5.16863 17.5598 5.07295 17.5598 4.95106C17.5598 4.83376 17.5013 4.74791 17.4069 4.70662C17.3183 4.66271 17.1844 4.65878 17.0541 4.65878H16.145V5.27283H17.0424C17.1873 5.27283 17.3073 5.26824 17.4076 5.21647Z" fill="white"/>
<path fill-rule="evenodd" clip-rule="evenodd" d="M23.0627 4.5817L22.5688 5.73816H23.563L23.0627 4.5817Z" fill="white"/>
<path fill-rule="evenodd" clip-rule="evenodd" d="M15.2655 12.0987V9.59302L14.1948 10.8247L15.2655 12.0987Z" fill="white"/>
<path fill-rule="evenodd" clip-rule="evenodd" d="M16.8409 9.86285H15.8774V10.7109H16.8336C17.1167 10.7109 17.2923 10.5606 17.2923 10.2719C17.2923 9.97915 17.1079 9.86285 16.8409 9.86285Z" fill="white"/>
<path fill-rule="evenodd" clip-rule="evenodd" d="M10.6387 9.86285V10.4008H12.2011V11.0062H10.6387V11.5975H12.388L13.2006 10.727L12.4219 9.86285H10.6387Z" fill="white"/>
<path fill-rule="evenodd" clip-rule="evenodd" d="M30.2587 10.5258H30.3398V8.70642H28.3306C27.9934 8.70642 27.7195 8.78581 27.4925 8.9089V8.70642H25.4841C25.1654 8.70642 24.9029 8.77707 24.683 8.88778V8.70642H21.1478V8.8936C20.802 8.72754 20.4612 8.70642 20.0863 8.70642H17.8609V8.90598C17.6161 8.78435 17.2981 8.70642 16.8826 8.70642H14.3413L13.6839 9.43111L13.0486 8.70642H9.33838V12.9468H12.9988L13.1681 12.7596L13.6605 12.2141L14.2972 12.9468H16.5148V11.9155H16.8414C17.2796 11.9155 17.6069 11.8317 17.8609 11.705V12.9468H19.7192V11.823H19.9184C19.9469 11.823 19.9711 11.8237 19.9917 11.8244C19.9924 11.8579 19.9917 11.8922 19.9917 11.9176V11.9788V12.9468H25.9409C26.2824 12.9468 26.5734 12.8805 26.8195 12.7669V12.9468H28.7881C29.8503 12.9468 30.4842 12.3656 30.4842 11.3925C30.4842 11.0422 30.4116 10.7611 30.2587 10.5258ZM17.6732 11.1522C17.6519 11.1645 17.6277 11.1747 17.6049 11.1857C17.5544 11.2112 17.5018 11.233 17.4463 11.2512C17.4185 11.2592 17.3915 11.2672 17.363 11.2745C17.3047 11.2891 17.2449 11.3 17.1838 11.308C17.1574 11.3117 17.1325 11.3168 17.1055 11.3197C17.0187 11.3277 16.9305 11.3328 16.8415 11.3328H15.9458V12.3641H14.5528L13.6685 11.3474L12.75 12.3641H9.90771V9.28908H12.7948L13.677 10.2956L14.5898 9.28908H16.8828C16.9632 9.28908 17.0457 9.29345 17.1275 9.30146C17.1517 9.30364 17.1745 9.30801 17.1987 9.31166C17.2577 9.31967 17.3161 9.33059 17.373 9.34443C17.3993 9.35099 17.4242 9.35827 17.4498 9.36628C17.5068 9.38376 17.5601 9.40707 17.6128 9.43329C17.6327 9.44276 17.6533 9.45077 17.6718 9.46242C17.7415 9.50321 17.8056 9.55055 17.8611 9.611C18.0026 9.76395 18.0916 9.98537 18.0916 10.3029C18.0916 10.745 17.9222 11.0036 17.6732 11.1522ZM21.1605 11.1937C21.2623 11.3444 21.2786 11.4843 21.28 11.7559V12.3641H20.5608V11.9788C20.5608 11.7938 20.5771 11.5214 20.4441 11.3787C20.3395 11.2658 20.1794 11.2403 19.9183 11.2403H19.1499V12.3641H18.4307V9.28906H20.0862C20.4505 9.28906 20.7159 9.30436 20.9506 9.43619C21.0282 9.48353 21.0915 9.54179 21.1477 9.60734C21.2523 9.73116 21.3177 9.88921 21.3177 10.1186C21.3177 10.6073 20.999 10.8579 20.8091 10.9344C20.8866 10.9635 20.9549 11.0036 21.0132 11.0473C21.0773 11.0946 21.1292 11.1463 21.1605 11.1937ZM24.1137 9.4005V9.92636H22.4325V10.4835H24.0717V11.1106H22.4325V11.7232L24.1137 11.7261V12.3641H21.7168V9.28906H24.1137V9.4005ZM26.8197 12.0655C26.7806 12.1063 26.735 12.1405 26.6859 12.1726C26.6169 12.2184 26.5422 12.2592 26.4561 12.2884C26.4213 12.2993 26.3821 12.3066 26.3444 12.3153C26.2242 12.3444 26.0926 12.3641 25.941 12.3641H24.5416V11.7042H25.9354C26.0734 11.7042 26.168 11.686 26.2285 11.6278C26.2776 11.5826 26.3138 11.5141 26.3138 11.4282C26.3138 11.3386 26.2761 11.2658 26.2249 11.225C26.1701 11.1762 26.0954 11.1565 25.9702 11.1551C25.8599 11.1514 25.7447 11.1478 25.6294 11.1434C25.6159 11.1427 25.6024 11.142 25.5882 11.1412C25.3413 11.1289 25.0994 11.0961 24.9009 11.0021H24.9002C24.7999 10.9541 24.7124 10.8892 24.6412 10.8026C24.5302 10.6656 24.4584 10.4777 24.4584 10.2031C24.4584 9.92856 24.5637 9.6445 24.8212 9.46752C24.8219 9.46679 24.8219 9.46606 24.8226 9.46606C24.871 9.43329 24.9251 9.40561 24.9834 9.38085C24.9898 9.37793 24.9955 9.37429 25.0019 9.37138C25.0567 9.34953 25.1193 9.33423 25.1833 9.3204C25.1969 9.31821 25.2082 9.31311 25.2218 9.3102C25.3022 9.29636 25.389 9.28908 25.4843 9.28908H26.9236V9.94312H25.6074C25.4758 9.94312 25.3911 9.94895 25.3185 9.99848C25.241 10.0487 25.2118 10.1237 25.2118 10.2213C25.2118 10.3357 25.2787 10.4151 25.3683 10.4493C25.4437 10.4763 25.5241 10.4835 25.6465 10.485L26.0342 10.4952C26.1253 10.4974 26.2086 10.5039 26.2854 10.5134C26.3558 10.5221 26.4184 10.5353 26.4782 10.5498C26.4825 10.5506 26.4874 10.5513 26.4917 10.5527C26.6432 10.5913 26.7649 10.6511 26.8524 10.7414C26.9947 10.8914 27.068 11.0786 27.068 11.3925C27.068 11.6904 26.9755 11.9067 26.8197 12.0655ZM28.7882 12.3641H27.3888V11.7042H28.7825C28.9205 11.7042 29.0145 11.686 29.0756 11.6278C29.1247 11.5826 29.1603 11.5141 29.1603 11.4282C29.1603 11.3386 29.1233 11.2658 29.0721 11.225C29.0173 11.1762 28.9426 11.1565 28.8174 11.1551C28.7135 11.1514 28.6054 11.1485 28.4972 11.1441C28.488 11.1441 28.4787 11.1434 28.4695 11.1427C28.3592 11.1376 28.2511 11.1281 28.1451 11.1136C28.1429 11.1136 28.1415 11.1128 28.1401 11.1128C27.6869 11.0487 27.3055 10.8572 27.3055 10.2031C27.3055 10.0043 27.3646 9.80183 27.4927 9.63722C27.5304 9.58915 27.5745 9.54472 27.625 9.50394C27.6293 9.50102 27.6328 9.49738 27.6364 9.49447C27.6826 9.45878 27.7345 9.42819 27.7922 9.40124C27.8036 9.39541 27.8135 9.38886 27.8249 9.38376C27.879 9.36045 27.9394 9.34297 28.0035 9.32841C28.022 9.32404 28.0376 9.31748 28.0568 9.31384C28.1401 9.29855 28.2311 9.28908 28.3307 9.28908H29.7707V9.94312H28.4545C28.3229 9.94312 28.2383 9.94895 28.1657 9.99848C28.0881 10.0487 28.059 10.1237 28.059 10.2213C28.059 10.3357 28.1251 10.4151 28.2155 10.4493C28.2909 10.4763 28.3713 10.4835 28.4937 10.485L28.8814 10.4952C29.272 10.5061 29.5374 10.5746 29.6996 10.7414C29.8412 10.8914 29.9152 11.0786 29.9152 11.3925C29.9152 12.0553 29.511 12.3641 28.7882 12.3641Z" fill="white"/>
<path fill-rule="evenodd" clip-rule="evenodd" d="M20.4659 9.91135C20.3787 9.86482 20.2454 9.86285 20.1144 9.86285H19.2041V10.4835H20.1026C20.2454 10.4835 20.3685 10.4782 20.4659 10.4271C20.5618 10.3747 20.6189 10.2783 20.6189 10.161C20.6189 10.0424 20.5618 9.95722 20.4659 9.91135Z" fill="white"/>
<path fill-rule="evenodd" clip-rule="evenodd" d="M17.7891 5.59525C17.884 5.55659 18.0127 5.46157 18.1115 5.31412C18.0127 5.46157 17.884 5.55659 17.7891 5.59525Z" fill="#2584BA"/>
<path fill-rule="evenodd" clip-rule="evenodd" d="M17.0742 11.2121C16.9949 11.2193 16.9143 11.2239 16.833 11.2239C16.9143 11.2239 16.9949 11.2193 17.0742 11.2121Z" fill="#2584BA"/>
<path fill-rule="evenodd" clip-rule="evenodd" d="M16.8716 9.28464C16.945 9.28464 17.0204 9.28857 17.0952 9.29578C17.0204 9.28857 16.945 9.28464 16.8716 9.28464Z" fill="#2584BA"/>
<path fill-rule="evenodd" clip-rule="evenodd" d="M17.4177 11.2121C17.3644 11.2252 17.3098 11.235 17.2539 11.2422C17.3098 11.235 17.3644 11.2252 17.4177 11.2121Z" fill="#2584BA"/>
<path fill-rule="evenodd" clip-rule="evenodd" d="M17.5903 11.135C17.5441 11.1579 17.496 11.1776 17.4453 11.194C17.496 11.1776 17.5441 11.1579 17.5903 11.135Z" fill="#2584BA"/>
<path fill-rule="evenodd" clip-rule="evenodd" d="M17.4453 9.28464C17.4973 9.30102 17.5467 9.32134 17.5942 9.34493C17.5461 9.32134 17.4973 9.30037 17.4453 9.28464Z" fill="#2584BA"/>
<path fill-rule="evenodd" clip-rule="evenodd" d="M17.2539 9.28464C17.3079 9.29185 17.3612 9.30168 17.4132 9.31413C17.3612 9.30168 17.3079 9.29185 17.2539 9.28464Z" fill="#2584BA"/>
<path fill-rule="evenodd" clip-rule="evenodd" d="M17.7129 9.40027C17.7766 9.43697 17.8358 9.47956 17.8858 9.53396C17.8351 9.47956 17.7766 9.43697 17.7129 9.40027Z" fill="#2584BA"/>
<path fill-rule="evenodd" clip-rule="evenodd" d="M26.7829 11.9445C26.7471 11.9805 26.7042 12.0113 26.6606 12.0408C26.7055 12.012 26.7471 11.9812 26.7829 11.9445Z" fill="#2584BA"/>
<path fill-rule="evenodd" clip-rule="evenodd" d="M25.2075 9.30364C25.281 9.29119 25.3603 9.28464 25.4474 9.28464C25.3603 9.28464 25.281 9.29119 25.2075 9.30364Z" fill="#2584BA"/>
<path fill-rule="evenodd" clip-rule="evenodd" d="M26.4946 12.1758C26.4634 12.1863 26.4264 12.1915 26.3926 12.2C26.427 12.1922 26.4628 12.1856 26.4946 12.1758Z" fill="#2584BA"/>
<path fill-rule="evenodd" clip-rule="evenodd" d="M24.7871 9.47694C24.8307 9.44745 24.8807 9.42255 24.934 9.40027C24.8807 9.42255 24.8313 9.44745 24.7871 9.47694Z" fill="#2584BA"/>
<path fill-rule="evenodd" clip-rule="evenodd" d="M25.9393 11.0683C25.8385 11.0651 25.7332 11.0624 25.6279 11.0579C25.7332 11.0618 25.8385 11.0651 25.9393 11.0683Z" fill="#2584BA"/>
<path fill-rule="evenodd" clip-rule="evenodd" d="M25.606 11.0674C25.3811 11.0549 25.1581 11.0274 24.978 10.9422C25.1594 11.0268 25.3804 11.0563 25.606 11.0674Z" fill="#2584BA"/>
<path fill-rule="evenodd" clip-rule="evenodd" d="M25.0547 9.33051C25.1047 9.31085 25.1619 9.29709 25.2205 9.28464C25.1619 9.29709 25.1047 9.31085 25.0547 9.33051Z" fill="#2584BA"/>
<path fill-rule="evenodd" clip-rule="evenodd" d="M26.2783 10.4411C26.342 10.449 26.4005 10.4601 26.4545 10.4739C26.3999 10.4608 26.3427 10.449 26.2783 10.4411Z" fill="#2584BA"/>
<path fill-rule="evenodd" clip-rule="evenodd" d="M24.8704 10.8905C24.7788 10.8466 24.6988 10.7889 24.6338 10.7109C24.6988 10.7889 24.7788 10.8472 24.8704 10.8905Z" fill="#2584BA"/>
<path fill-rule="evenodd" clip-rule="evenodd" d="M28.9034 11.0677C28.8085 11.0644 28.7096 11.0624 28.6108 11.0579C28.7096 11.0618 28.8085 11.0644 28.9034 11.0677Z" fill="#2584BA"/>
<path fill-rule="evenodd" clip-rule="evenodd" d="M27.6929 9.48415C27.7345 9.45204 27.7832 9.42452 27.8352 9.40027C27.7826 9.42452 27.7351 9.45204 27.6929 9.48415Z" fill="#2584BA"/>
<path fill-rule="evenodd" clip-rule="evenodd" d="M28.0752 9.30692C28.1513 9.2925 28.2338 9.28464 28.3255 9.28464C28.2345 9.28464 28.1513 9.29316 28.0752 9.30692Z" fill="#2584BA"/>
<path fill-rule="evenodd" clip-rule="evenodd" d="M27.6162 9.59728C27.6507 9.55403 27.691 9.51405 27.7371 9.47736C27.691 9.51405 27.6507 9.55403 27.6162 9.59728Z" fill="#2584BA"/>
<path fill-rule="evenodd" clip-rule="evenodd" d="M28.4864 11.0841C28.3863 11.0795 28.2861 11.0716 28.1899 11.0579C28.2868 11.071 28.3856 11.0795 28.4864 11.0841Z" fill="#2584BA"/>
<path fill-rule="evenodd" clip-rule="evenodd" d="M27.8457 9.33444C27.8951 9.31347 27.951 9.2984 28.0089 9.28464C27.9504 9.29774 27.8951 9.31347 27.8457 9.33444Z" fill="#2584BA"/>
<path fill-rule="evenodd" clip-rule="evenodd" d="M21.001 9.40027C21.0718 9.44286 21.1297 9.49529 21.181 9.55427C21.1297 9.49529 21.0718 9.44286 21.001 9.40027Z" fill="#2584BA"/>
<defs>
<radialGradient id="paint0_radial_72_915" cx="0" cy="0" r="1" gradientUnits="userSpaceOnUse" gradientTransform="translate(7.14889 2.81162) rotate(41.1029) scale(17.3474 21.7619)">
<stop stop-color="#65BCF2"/>
<stop offset="1" stop-color="#004FC5"/>
</radialGradient>
</defs>
</svg>

<svg xmlns="http://www.w3.org/2000/svg" width="34" height="17" fill="none">
    <path fill="url(#a)" fill-rule="evenodd" d="M0 0v17h34V0H0Z" clip-rule="evenodd" />
    <path fill="#fff" fill-rule="evenodd"
        d="M10.15 7.74h.37l.1-.24v.24h6.05V6.63h.28V7.74H20v-.33c.41.27.92.33 1.21.33h1.24l.26-.68h.74l.28.68h2.42v-.8l.47.8h1.91V3.5h-1.88v.63l-.37-.63h-2v.65l-.26-.65h-2.75c-.53 0-.95.12-1.27.34V3.5h-1.88v.2a2.3 2.3 0 0 0-1.08-.2h-6.68l-.51 1.23-.56-1.23H7.18v.66L6.9 3.5H5.07L3.3 7.74h2.03l.28-.68h.73l.28.68h2.42V7.5l.1.24h1.01ZM20 4.68c.05-.08.1-.16.17-.23.24-.25.6-.36 1.1-.36h.7v.65h-.69c-.26 0-.41.04-.55.19-.13.13-.21.37-.21.7 0 .32.06.56.2.72.1.12.31.15.5.15h.32l1.02-2.41h1.08l1.22 2.9V4.1h1.1l1.27 2.14V4.09h.73v3.07h-1.02l-1.36-2.3v2.3H24.1l-.28-.69h-1.5l-.27.7h-.85c-.35 0-.8-.09-1.04-.35-.26-.26-.39-.61-.39-1.17 0-.36.06-.69.22-.97Zm-1.3 1.17V4.1h.73v3.07h-.73v-1.3ZM15.38 4.1h1.66c.37 0 .64 0 .87.14.23.14.37.34.37.69 0 .21-.07.37-.16.5a.85.85 0 0 1-.35.31c.16.07.3.17.35.26.1.15.13.3.13.57v.6h-.73v-.39c0-.18.01-.45-.12-.6-.1-.1-.26-.13-.52-.13h-.78v1.12h-.72V4.1Zm-2.9 0h2.4v.64H13.2v.55h1.64v.63H13.2v.61h1.68v.64h-2.4V4.1Zm-4.01.66v2.41H7l-.27-.69h-1.5l-.28.7h-.79l1.3-3.08h1.06l1.23 2.9V4.1h1.18l.94 2.08.87-2.08h1.2v3.07h-.74v-2.4l-1.05 2.4h-.63L8.47 4.75Z"
        clip-rule="evenodd" />
    <path fill="#fff" fill-rule="evenodd"
        d="M5.4 5.74h1l-.5-1.16-.5 1.16ZM17.4 5.22c.1-.05.16-.15.16-.27 0-.12-.06-.2-.15-.24a.86.86 0 0 0-.36-.05h-.9v.61h.9a.8.8 0 0 0 .36-.05ZM23.06 4.58l-.5 1.16h1l-.5-1.16ZM15.27 12.1V9.6l-1.08 1.22 1.08 1.28ZM16.84 9.86h-.96v.85h.95c.29 0 .46-.15.46-.44 0-.3-.18-.4-.45-.4ZM10.64 9.86v.54h1.56v.6h-1.56v.6h1.75l.81-.87-.78-.87h-1.78Z"
        clip-rule="evenodd" />
    <path fill="#fff" fill-rule="evenodd"
        d="M30.26 10.53h.08V8.7h-2c-.35 0-.62.08-.85.2v-.2h-2c-.32 0-.59.07-.8.18V8.7h-3.54v.18a2.33 2.33 0 0 0-1.06-.18h-2.23v.2c-.24-.13-.56-.2-.98-.2h-2.54l-.66.72-.63-.72H9.34v4.24H13l.17-.19.5-.55.63.74h2.21v-1.03h.33c.44 0 .77-.09 1.02-.21v1.24h1.86v-1.13h.27v1.13h5.95c.34 0 .63-.07.88-.18v.18h1.97c1.06 0 1.7-.58 1.7-1.56 0-.35-.08-.63-.23-.86Zm-12.59.62-.07.04-.15.06-.09.02-.18.04-.07.01-.27.01h-.9v1.03h-1.39l-.88-1.01-.92 1.01H9.91V9.3h2.88l.89 1 .91-1h2.3l.24.01.07.01a1.71 1.71 0 0 1 .25.06c.06.01.11.04.16.06l.06.03a.8.8 0 0 1 .2.15c.13.15.22.38.22.7 0 .43-.17.7-.42.84Zm3.49.04c.1.15.12.3.12.57v.6h-.72v-.38c0-.19.02-.46-.12-.6-.1-.11-.26-.14-.52-.14h-.77v1.12h-.72V9.3h1.66c.36 0 .63.01.86.15a.75.75 0 0 1 .37.68c0 .49-.32.74-.51.81a.83.83 0 0 1 .35.26Zm2.95-1.79v.53h-1.68v.55h1.64v.63h-1.64v.61h1.68v.64h-2.4V9.3h2.4v.11Zm2.71 2.67a.98.98 0 0 1-.36.22l-.12.03c-.12.02-.25.04-.4.04h-1.4v-.66h1.4c.13 0 .23-.01.29-.07a.27.27 0 0 0 .08-.2.26.26 0 0 0-.09-.2c-.05-.05-.12-.07-.25-.07l-.34-.02h-.04a1.84 1.84 0 0 1-.69-.14.75.75 0 0 1-.26-.2.91.91 0 0 1-.18-.6c0-.27.1-.56.36-.73.05-.04.1-.06.16-.09H25l.18-.06.04-.01.26-.02h1.44v.65h-1.31c-.13 0-.22 0-.3.06-.07.05-.1.12-.1.22 0 .12.07.2.16.23.07.03.15.03.28.04h.38a2.54 2.54 0 0 1 .45.06h.01c.15.04.27.1.36.2.14.14.22.33.22.64 0 .3-.1.52-.25.68Zm1.97.3h-1.4v-.67h1.4c.13 0 .22-.01.29-.07a.27.27 0 0 0 .08-.2.26.26 0 0 0-.09-.2c-.05-.05-.13-.07-.25-.07l-.32-.02h-.03c-.11 0-.22-.01-.32-.03h-.01c-.45-.06-.83-.25-.83-.9a.83.83 0 0 1 .32-.7v-.02l.16-.09.03-.02.18-.05.06-.02.27-.02h1.44v.65h-1.32c-.13 0-.21 0-.28.06-.08.05-.11.12-.11.22 0 .12.07.2.16.23.07.03.15.03.27.04h.4c.38.02.65.08.81.25.14.15.22.34.22.65 0 .67-.4.97-1.13.97Z"
        clip-rule="evenodd" />
    <path fill="#fff" fill-rule="evenodd"
        d="M20.47 9.91a.81.81 0 0 0-.36-.05h-.9v.62h.9a.8.8 0 0 0 .36-.05.3.3 0 0 0 .15-.27c0-.12-.06-.2-.15-.25Z"
        clip-rule="evenodd" />
    <path fill="#2584BA" fill-rule="evenodd"
        d="M17.79 5.6ZM17.07 11.21ZM16.87 9.28ZM17.42 11.21ZM17.59 11.13ZM17.45 9.28ZM17.25 9.28ZM17.71 9.4ZM26.78 11.94ZM25.2 9.3ZM26.5 12.18l-.1.02.1-.02ZM24.79 9.48ZM25.94 11.07l-.31-.01h.3ZM25.6 11.07ZM25.05 9.33ZM26.28 10.44ZM24.87 10.89ZM28.9 11.07l-.29-.01h.3ZM27.7 9.48ZM28.08 9.3ZM27.62 9.6ZM28.49 11.08ZM27.85 9.33ZM21 9.4Z"
        clip-rule="evenodd" />
    <defs>
        <radialGradient id="a" cx="0" cy="0" r="1"
            gradientTransform="rotate(41.1 -.18 10.94) scale(17.347 21.762)"
            gradientUnits="userSpaceOnUse">
            <stop stop-color="#65BCF2" />
            <stop offset="1" stop-color="#004FC5" />
        </radialGradient>
    </defs>
</svg>
